packages/sources/icons/src/vitamix/mail-fill.svg

<svg width="16" height="16" viewBox="0 0 16 16" xmlns="http://www.w3.org/2000/svg"><path fill-rule="evenodd" clip-rule="evenodd" d="M14.0002 2H2.00016C1.63197 2 1.3335 2.29848 1.3335 2.66667V13.3333C1.3335 13.7015 1.63197 14 2.00016 14H14.0002C14.3684 14 14.6668 13.7015 14.6668 13.3333V2.66667C14.6668 2.29848 14.3684 2 14.0002 2ZM3.76549 4.15865L8.04015 7.78865L12.2308 4.16265L13.1028 5.17132L8.04882 9.54465L2.90215 5.17465L3.76549 4.15865Z"/></svg>

<svg width="16" height="16" xmlns="http://www.w3.org/2000/svg"><path fill-rule="evenodd" clip-rule="evenodd" d="M14 2H2a.667.667 0 0 0-.667.667v10.666c0 .368.299.667.667.667h12a.667.667 0 0 0 .667-.667V2.667A.667.667 0 0 0 14 2ZM3.765 4.159l4.275 3.63 4.19-3.626.873 1.008-5.054 4.374-5.147-4.37.863-1.016Z"/></svg>
